X:0758
M:C|
L:1/8
Q:1/4=120
K:D
                                                        [2 f/g/a eg  fdd||
f   |d/e/f/g/ a>d b>da>d|f>da>d geef|d/e/f/g/ ad b>da>d|   g>ba>g    fddf|
     d/e/f/g/ a>d b>da>d|f>da>d efge|d>fB>d      A>dF>d|   G>eEg     fdd|]

